X: 9583
T: David's
R: hornpipe
M: 4/4
K: Gmajor
|:(3DEF|G>FG>D (3EFG D>E|G>Bd>d d2 (3dcB|c>ea>g a>fd>c|B>dg>f g2 (3DEF|
G>FG>D (3EFG D>E|G>Bd>d d2 (3dcB|c>ea>g f>de>f|g2 d2 g2:|
|:d>c|B>dc>e d2 (3dBG|F>A (3DEF G2 (3dBG|F>A (3DEF G>AB>d|^c>d (3edc d2 d>=c|
c>Bc>e (3agf (3edc|B>AB>d (3gfe (3dcB|A>GA>d (3fed (3cBA|G2 B>d [G2g2]:|

